!!!COA:	des Prez, Josquin
!!!CDT:	~1450-1521/08/27
!!!OPR:	Missa Allez regretz II
!!!ONM:	3
!!!OTL:	Credo
!!!AGN:	Mass; Credo
!!!SCT:	NJE 7.2
!!!SCA:	New Josquin Edition 7.2
!!!voices:	4
!!!COM:	des Prez, Josquin ?
!!!OTL:	Jos0702c-Missa_Allez_regretz_II-Credo
**kern	**kern	**kern	**kern
*part4	*part3	*part2	*part1
*staff4	*staff3	*staff2	*staff1
*Ivox	*Ivox	*Ivox	*Ivox
*I"Bassus	*I"Tenor	*I"Contratenor	*I"Superius
*I'B	*I'T	*I'Ct	*I'S
*>[A,B]	*>[A,B]	*>[A,B]	*>[A,B]
*>A	*>A	*>A	*>A
*clefF4	*clefGv2	*clefGv2	*clefG2
*k[b-]	*k[b-]	*k[b-]	*k[b-]
*d:	*d:	*d:	*d:
*M2/1	*M2/1	*M2/1	*M2/1
*met(C|)	*met(C)	*met(C|)	*met(C|)
*	*rscale:1/4	*	*
=1	=1	=1	=1
!!section: Patrem omnipotentem
!!!OMD: Patrem omnipotentem
!	!LO:TX:Z=12:t=Crescit in duplo	!	!
!	!LO:N:vis=0	!	!
1C	[y0c	1r	0r
[1F	.	1c	.
=2	=2-	=2	=2
1F]	0c_yy	1f	1c
1F	.	2f	1f
.	.	2f	.
=3	=3-	=3	=3
2F	0c_yy	2c	2f
2F	.	1f	2f
1C	.	.	2g
.	.	2e	2g
=4	=4-	=4	=4
1F	0c]yy	1f	1a
2F	.	2r	2a
2F	.	2F	2a
=5	=5	=5	=5
!	!LO:N:vis=1	!	!
1F	[y0c	2A	2a
.	.	2A	2a
2F	.	2F	2a
2E	.	[2c	[2g
=6	=6-	=6	=6
2F	0c]yy	2c]	4g]
.	.	.	4f
2F	.	2A	1f
1C	.	1G	.
.	.	.	2e
=7	=7-	=7	=7
!	!LO:N:vis=1	!	!
2r	[y0A	0F	1f
1D	.	.	.
.	.	.	2r
2D	.	.	[2a
=8	=8-	=8	=8
2D	0A]yy	1r	2a]
2D	.	.	2a
1AA	.	1c	2a
.	.	.	2a
=9	=9	=9	=9
2r	0G	2c	1e
1C	.	1c	.
.	.	.	2r
2C	.	2c	[2g
=10	=10-	=10	=10
!	!LO:N:vis=1	!	!
1GG	[y0B-	1d	2g]
.	.	.	2g
1G	.	2d	2d
.	.	2d	2g
=11	=11-	=11	=11
2D	0B-]yy	1d	2f
1G	.	.	2g
.	.	2d	2d
2G	.	2d	[2g
=12	=12-	=12	=12
4D	1A	2d	4g]
2.F	.	.	4f
.	.	2c	1f
1C	1G	2c	.
.	.	2c	2e
=13	=13	=13	=13
!	!LO:N:vis=1	!	!
[0D	[y0F	1A	0f
.	.	2r	.
.	.	[2d	.
=14	=14-	=14	=14
0D]	0F]yy	2d]	2r
.	.	2d	1a
.	.	2d	.
.	.	2d	2a
=15	=15-	=15	=15
!	!LO:N:vis=1	!	!
1r	[y0F	2.c	2a
.	.	.	2a
.	.	4B-	.
2r	.	1A	2.f
[2D	.	.	.
.	.	.	4e
=16	=16-	=16	=16
2D]	0F]yy	0r	1d
2BB-	.	.	.
1AA	.	.	1r
=17	=17	=17	=17
!	!LO:N:vis=1	!	!
[0GG	[y0G	0r	2r
.	.	.	1d
.	.	.	2d
=18	=18-	=18	=18
0GG]	0G]yy	0r	1d
.	.	.	1g
=19	=19-	=19	=19
!	!LO:N:vis=1	!	!
0r	[y0B-	2r	0f
.	.	1d	.
.	.	2d	.
=20	=20-	=20	=20
2G	0B-]yy	1d	0r
2G	.	.	.
2G	.	1g	.
2G	.	.	.
=21	=21	=21	=21
!	!LO:N:vis=0	!	!
[0D	[y0A	0f	2r
.	.	.	2d
.	.	.	2d
.	.	.	2d
=22	=22-	=22	=22
0D]	0A_yy	2r	1f
.	.	2d	.
.	.	2d	1f
.	.	2d	.
=23	=23-	=23	=23
2r	0A_yy	1f	2c
2D	.	.	1d
2D	.	1f	.
2D	.	.	[2f
=24	=24-	=24	=24
1F	0A]yy	1c	2f]
.	.	.	2f
1F	.	2r	2f
.	.	[2c	2f
=25	=25	=25	=25
!	!LO:N:vis=1.	!	!
1C	[y0G	2c]	1e
.	.	2c	.
1C	.	2c	1e
.	.	2c	.
=26	=26-	=26	=26
1GG	0G_yy	1B-	0d
2GG	.	2.B-	.
2AA	.	.	.
.	.	4c	.
=27	=27-	=27	=27
2BB-	0G]yy	2d	0r
2.C	.	2.e	.
4D	.	4d	.
4E	.	[2g	.
4C	.	.	.
=28	=28-	=28	=28
2F	1A	4g]	0r
.	.	4f	.
2A	.	1f	.
1G	1B-	.	.
.	.	2e	.
=29	=29	=29	=29
!	!LO:N:vis=1	!	!
0F	[y0c	1f	2r
.	.	.	1a
.	.	2r	.
.	.	[2a	2a
=30	=30-	=30	=30
2r	0c]yy	2a]	2a
1A	.	2a	2a
.	.	2a	1e
2A	.	2a	.
=31	=31-	=31	=31
2A	0c	0e	1r
2A	.	.	.
1E	.	.	1g
=32	=32-	=32	=32
1r	[0B-	1g	2g
.	.	.	2g
1G	.	2g	2g
.	.	2g	2g
=33	=33	=33	=33
2G	0B-]	2g	1d
2G	.	2g	.
2G	.	[1d	1r
2G	.	.	.
=34	=34-	=34	=34
1D	1A	1d]	2f
.	.	.	2f
1r	1G	2d	1g
.	.	2e	.
=35	=35-	=35	=35
0r	0F	1f	0a
.	.	[1c	.
=36	=36-	=36	=36
1AA	0E	1c]	2r
.	.	.	1a
1C	.	1c	.
.	.	.	2g
=37	=37	=37	=37
2.D	0F	0A	2f
.	.	.	4e
4E	.	.	4d
4F	.	.	2c
4G	.	.	.
2A	.	.	[2f
=38	=38-	=38	=38
2.D	0A	1F	4f]
.	.	.	4g
.	.	.	1a
4E	.	.	.
1F	.	[1c	.
.	.	.	4g
.	.	.	4f
=39	=39-	=39	=39
!	!LO:N:vis=1	!	!
1C	[y0G	1c]	1e
1GG	.	[1d	2d
.	.	.	[2g
=40	=40-	=40	=40
1BB-	0G]yy	1d]	4g]
.	.	.	4f
.	.	.	1f
1C	.	1c	.
.	.	.	2e
=41	=41	=41	=41
*	*M2/1	*	*
*	*met(C|)	*	*
*	*rscale:1/2	*	*
0D	[0F	1A	0f
.	.	1r	.
=42	=42-	=42	=42
0r	0F_	1c	1r
.	.	2c	1a
.	.	2c	.
=43	=43	=43	=43
1D	0F_	1d	2a
.	.	.	2a
2D	.	1d	2a
2D	.	.	2a
=44	=44-	=44	=44
1F	0F]	1c	1a
1F	.	1f	1a
=45	=45	=45	=45
1C	0r	2e	1g
.	.	2e	.
1C	.	2e	1cc
.	.	2e	.
=46	=46-	=46	=46
2D	0F	1d	2b-
2D	.	.	1a
2D	.	1d	.
2D	.	.	4g
.	.	.	4f
=47	=47	=47	=47
2.C	0c	1.G	1e
4D	.	.	.
2E	.	.	1r
[2F	.	[2A	.
=48	=48-	=48	=48
2F]	0c	2A]	0r
4E	.	2F	.
4D	.	.	.
1C	.	2G	.
.	.	2A	.
=49	=49	=49	=49
1BB-	0d	2.B-	2.f
.	.	4A	4g
1r	.	2F	2a
.	.	[2G	[2b-
=50	=50-	=50	=50
0r	0d	2G]	2b-]
.	.	2F	1a
.	.	1B-	.
.	.	.	2g
=51	=51	=51	=51
*	*M2/1	*	*
*	*met(2)	*	*
*	*rscale:1	*	*
1F	1.c	0A	0a
1F	.	.	.
.	4B-	.	.
.	4A	.	.
=52	=52	=52	=52
1D	2B-	0r	0r
.	2A	.	.
2D	2F	.	.
[2C	[2G	.	.
=53	=53	=53	=53
2C]	2G]	2r	0r
2AA	1A	2c	.
1BB-	.	1d	.
.	2G	.	.
=54	=54	=54	=54
*	*M2/1	*	*
*	*met(C)	*	*
*	*rscale:1/4	*	*
1AA	[0A	1c	2r
.	.	.	2c
1D	.	1f	1d
=55	=55-	=55	=55
1r	0A_	2e	1c
.	.	2e	.
1D	.	1d	1f
=56	=56-	=56	=56
1C	0A_	2r	2e
.	.	2e	2e
1D	.	1f	1d
=57	=57-	=57	=57
1C	0A_	1e	2r
.	.	.	2e
2D	.	1d	1f
2D	.	.	.
=58	=58	=58	=58
1AA	0A_	1c	1e
2.D	.	1r	1d
4E	.	.	.
=59	=59-	=59	=59
2F	0A_	0r	2c
2.D	.	.	2.f
4E	.	.	4g
4F	.	.	4a
4G	.	.	4b-
=60	=60-	=60	=60
2A	0A_	0r	2cc
1F	.	.	1a
4E	.	.	4g
4D	.	.	4f
=61	=61-	=61	=61
2C	0A]	0r	2e
1D	.	.	1f
4C	.	.	4e
4BB-	.	.	4d
=62	=62	=62	=62
!	!LO:N:vis=1	!	!
2AA	0r	2r	1c
2A	.	2e	.
1A	.	1f	1r
=63	=63-	=63	=63
2G	0ryy	2e	0r
2F	.	2d	.
1E	.	1c#Xi	.
=64	=64-	=64	=64
!	!LO:N:vis=1	!	!
0D	[y0A	0d	1r
.	.	.	1f
=65	=65-	=65	=65
0r	0A]yy	0r	2f
.	.	.	2f
.	.	.	2e
.	.	.	2e
=66	=66	=66	=66
!	!LO:N:vis=1	!	!
1D	[y0A	1r	0d
2D	.	1f	.
2D	.	.	.
=67	=67-	=67	=67
2AA	0A]yy	2f	0r
1D	.	2f	.
.	.	2e	.
2C#Xi	.	2e	.
=68	=68-	=68	=68
!	!LO:N:vis=1	!	!
1D	[y0A	1d	1f
2r	.	1r	1f
[2D	.	.	.
=69	=69-	=69	=69
2D]	0A]yy	1d	0f
4C	.	.	.
4BB-	.	.	.
1AA	.	1c	.
=70	=70	=70	=70
*	*M2/1	*	*
*	*met(C.)	*	*
*	*rscale:1/4	*	*
!	!LO:N:vis=1.	!	!
1GG	[y0B-	0d	1.g
2r	.	.	.
[2G	.	.	[2b-
=71	=71-	=71	=71
2G]	0B-_yy	1G	2b-]
4F	.	.	4a
4E	.	.	4g
2D	.	2r	2f
[2E-Xi	.	2G	[2g
=72	=72-	=72	=72
2E-]	0B-]yy	4G	2g]
.	.	4A	.
4D	.	4B-	4f
4C	.	4c	4e
2BB-	.	[1d	1d
2GG	.	.	.
=73	=73-	=73	=73
!	!LO:N:vis=1	!	!
0D	[y0A	1d]	1r
.	.	1d	1f
=74	=74-	=74	=74
0D	0A]yy	1d	0f
.	.	1d	.
=75	=75-	=75	=75
0GG	0G	2.B-	0g
.	.	4c	.
.	.	2d	.
.	.	2e	.
=76	=76	=76	=76
!	!LO:N:vis=2.	!	!
0D	[y0F	2.f	[0a
.	.	4e	.
.	.	2.d	.
.	.	8cL	.
.	.	8B-J	.
=77	=77-	=77	=77
1D	1F]yy	2A	1a]
.	.	2d	.
1E	1E	4G	1g
.	.	4A	.
.	.	4B-	.
.	.	4c	.
=78	=78-	=78	=78
0F	0D	2d	1.f
.	.	1c	.
.	.	2Bni	4e
.	.	.	4d
=79	=79-	=79	=79
!	!LO:N:vis=1.	!	!
0G	[y0C	0c	0e
=80	=80-	=80	=80
1G	0C_yy	1c	2r
.	.	.	1e
2G	.	2c	.
[2G	.	[2c	2e
=81	=81-	=81	=81
2G]	0C]yy	2c]	2e
2G	.	2c	2e
2G	.	2c	2e
2G	.	2c	2e
=82	=82	=82	=82
!	!LO:N:vis=1.	!	!
0F	[y0c	0A	0f
=83	=83-	=83	=83
1F	0c_yy	0r	1a
2E	.	.	2g
[2F	.	.	[2a
=84	=84-	=84	=84
2F]	0c]yy	1r	2a]
4E	.	.	4g
4D	.	.	4f
1C	.	1G	1e
=85	=85-	=85	=85
!	!LO:N:vis=2.	!	!
1r	[y0B-	1G	2r
.	.	.	1d
1G	.	1G	.
.	.	.	2e
=86	=86-	=86	=86
1G	1B-]yy	0d	2d
.	.	.	1g
1D	1A	.	.
.	.	.	2f
=87	=87-	=87	=87
1.E-X	0G	1B-	1g
.	.	1B-	1g
2D	.	.	.
=88	=88	=88	=88
!	!LO:N:vis=1.	!	!
[0BB-	[y0d	0f	1.b-
.	.	.	4a
.	.	.	4g
=89	=89-	=89	=89
0BB-]	0d_yy	1r	1f
.	.	[1f	2r
.	.	.	[2b-
=90	=90-	=90	=90
2.BB-	0d]yy	1f]	2b-]
.	.	.	2b-
4C	.	.	.
2.D	.	1f	1b-
4E	.	.	.
=91	=91-	=91	=91
!	!LO:N:vis=2.	!	!
1.F	[y0c	1f	1.a
.	.	1f	.
4E	.	.	4g
4D	.	.	4f
=92	=92-	=92	=92
1C	1c]yy	1e	2g
.	.	.	1a
1D	1A	1f	.
.	.	.	[2f
=93	=93-	=93	=93
1BB-	0B-	1.d	2f]
.	.	.	1d
1GG	.	.	.
.	.	4c	2e
.	.	4B-	.
=94	=94	=94	=94
*	*M2/1	*	*
*	*met(C|)	*	*
*	*rscale:1/2	*	*
2.D	0F	0A	2f
.	.	.	4e
4E	.	.	4d
1F	.	.	2c
.	.	.	[2f
=95	=95-	=95	=95
0C	0G	1r	2f]
.	.	.	4e
.	.	.	4d
.	.	1c	1e
=96	=96	=96	=96
1r	0F	2c	1f
.	.	2c	.
1D	.	1A	2r
.	.	.	[2a
=97	=97-	=97	=97
2D	1r	2F	2a]
2D	.	1f	1a
2.D	[1F	.	.
.	.	2d	2a
4C	.	.	.
=98	=98	=98	=98
1AA	1F]	2c	1a
.	.	2c	.
!	!LO:N:vis=1	!	!
[1GG	[y1G	1B-	1b-
=99	=99-	=99	=99
1GG]	1G]yy	1d	2b-
.	.	.	2b-
2D	1A	2d	2a
2D	.	2d	2a
=100	=100	=100	=100
2G	1B-	2d	1g
2G	.	2e	.
!	!LO:N:vis=1	!	!
[1F	[y1c	2.f	2r
.	.	.	2a
.	.	4e	.
=101	=101-	=101	=101
1F]	1c]yy	2c	1a
.	.	1f	.
1G	1B-	.	1g
.	.	2e	.
=102	=102	=102	=102
1F	0c	1f	1a
1C	.	[1g	2g
.	.	.	[2cc
=103	=103-	=103	=103
1G	0d	2g]	2cc]
.	.	2f	4bni
.	.	.	4a
1G	.	1d	1bni
=104	=104	=104	=104
!	!LO:N:vis=0	!	!
[0Cl	[0cl	2.e-X	2.cc
.	.	4d	4b-
.	.	2c	2a
.	.	4B-	4g
.	.	4A	4f
=105	=105-	=105	=105
0C]	0c]	0Gl	0el
!!LO:LB:i:g=z
*	*rscale:1	*	*
=106||	=106||	=106||	=106||
*>B	*>B	*>B	*>B
*clefF4	*clefGv2	*clefGv2	*clefG2
*k[b-]	*k[b-]	*k[b-]	*k[b-]
*M2/1	*M2/1	*M2/1	*M2/1
*met(C|)	*met(C|)	*met(C|)	*met(C|)
*	*rscale:1/2	*	*
!!section: Et ascendit
!!!OMD: Et ascendit
!	!LO:TX:Z=12:t=Crescit in duplo	!	!
!	!LO:N:vis=0	!	!
[0F	0r	0r	[0cc
=107	=107-	=107	=107
0F]	0ryy	0A	0cc]
=108	=108	=108	=108
!	!LO:N:vis=0	!	!
1G	0r	1.d	1b-
1G	.	.	1b-
.	.	2e	.
=109	=109-	=109	=109
1.D	0ryy	1.f	0a
2E	.	4e	.
.	.	4d	.
=110	=110	=110	=110
!	!LO:N:vis=0	!	!
1F	0r	0c	1a
1F	.	.	1a
=111	=111-	=111	=111
0C	0ryy	1r	[0g
.	.	[1c	.
=112	=112	=112	=112
!	!LO:N:vis=0	!	!
0r	0r	2c]	0g]
.	.	4B-	.
.	.	4A	.
.	.	2B-	.
.	.	2c	.
=113	=113-	=113	=113
0r	0ryy	2.F	1.a
.	.	4G	.
.	.	2A	.
.	.	[2B-	2g
=114	=114	=114	=114
!	!LO:N:vis=0	!	!
0r	0r	4B-]	2f
.	.	4A	.
.	.	1d	4e
.	.	.	4d
.	.	.	1e
.	.	2c#Xi	.
=115	=115-	=115	=115
1r	0ryy	1d	0d
2r	.	1d	.
2D	.	.	.
=116	=116	=116	=116
!	!LO:N:vis=0	!	!
2.D	0r	1d	0r
4E	.	.	.
2F	.	1d	.
2G	.	.	.
=117	=117-	=117	=117
2.A	0ryy	2.c	0r
4G	.	4B-	.
4F	.	4A	.
4E	.	4G	.
2F	.	[2F	.
=118	=118	=118	=118
!	!LO:N:vis=0	!	!
2A	0r	2F]	0r
2B-	.	1f	.
1G	.	.	.
.	.	2e	.
=119	=119-	=119	=119
1F	0ryy	0f	2.a
.	.	.	4b-
1r	.	.	2cc
.	.	.	[2dd
=120	=120	=120	=120
!	!LO:N:vis=0	!	!
0r	0r	2.d	4dd]
.	.	.	4cc
.	.	.	2b-
.	.	4e	.
.	.	2f	2a
.	.	2e	[2g
=121	=121-	=121	=121
0r	0ryy	1c	2g]
.	.	.	1cc
.	.	1d	.
.	.	.	2bni
=122	=122	=122	=122
!	!LO:N:vis=0	!	!
0r	0r	[0c	2cc
.	.	.	1a
.	.	.	4g
.	.	.	4f
=123	=123-	=123	=123
2r	0ryy	0c]	1e
1A	.	.	.
.	.	.	1r
4G	.	.	.
4F	.	.	.
=124	=124	=124	=124
!	!LO:N:vis=0	!	!
1E	0r	1c	1r
1r	.	1d	1f
=125	=125-	=125	=125
0r	0ryy	2c	2e
.	.	2A	2f
.	.	4B-	4g
.	.	4A	4f
.	.	4G	4e
.	.	4F	4d
=126	=126	=126	=126
!	!LO:N:vis=0	!	!
2r	0r	2E	1c
1F	.	2.A	.
.	.	.	1r
.	.	4G	.
2E	.	[2c	.
=127	=127-	=127	=127
1D	0ryy	2c]	1r
.	.	2Bni	.
2C	.	1c	2r
[2F	.	.	2c
=128	=128	=128	=128
!	!LO:N:vis=0	!	!
4F]	0r	1r	2.f
4G	.	.	.
2.A	.	.	.
.	.	.	4g
.	.	2.F	2.a
4B-	.	.	.
2c	.	.	.
.	.	4G	4b-
=129	=129-	=129	=129
2.F	0ryy	2.A	1cc
4G	.	4B-	.
2A	.	2c	2r
[2D	.	[2d	[2f
=130	=130	=130	=130
!	!LO:N:vis=0	!	!
4D]	0r	2d]	4f]
4E	.	.	4g
4F	.	2.c	4a
4G	.	.	4b-
4A	.	.	2a
4F	.	4A	.
2G	.	2B-	[2g
=131	=131-	=131	=131
2C	0ryy	2c	4g]
.	.	.	4f
2D	.	2F	1f
1C	.	1G	.
.	.	.	2e
=132	=132	=132	=132
1r	[0c	0F	1f
1F	.	.	1a
=133	=133-	=133	=133
[0F	0c_	1r	1.a
.	.	1f	.
.	.	.	2a
=134	=134	=134	=134
1F]	0c_	1f	1a
1F	.	1f	1a
=135	=135-	=135	=135
0C	0c]	0e	1g
.	.	.	1g
=136	=136	=136	=136
0G	0B-	1g	0d
.	.	1g	.
=137	=137-	=137	=137
1G	0B-	1g	1r
1G	.	1d	1d
=138	=138	=138	=138
*	*M2/1	*	*
*	*met(2)	*	*
*	*rscale:1	*	*
1D	0A	1d	2f
.	.	.	2f
1D	.	2f	2f
.	.	2f	2f
=139	=139	=139	=139
2F	1A	2f	1c
2F	.	2f	.
2F	1A	[1c	1f
2F	.	.	.
=140	=140	=140	=140
2C	1G	1c]	2e
2E	.	.	2g
2D	2.A	2d	2f
2C	.	2A	[2e
.	4G	.	.
=141	=141	=141	=141
2D	4F	2B-	4e]
.	4E	.	4d
2BB-	2D	2G	1d
1AA	1E	1A	.
.	.	.	2c#Xi
=142	=142	=142	=142
*	*M2/1	*	*
*	*met(C)	*	*
*	*rscale:1/4	*	*
!	!LO:N:vis=2.	!	!
0r	[y0D	2r	1d
.	.	1A	.
.	.	.	2r
.	.	[2B-	2d
=143	=143-	=143	=143
0r	1D]yy	2B-]	1f
.	.	2A	.
.	1E	2G	1g
.	.	4F	.
.	.	4E	.
=144	=144-	=144	=144
1r	0F	1D	0a
1D	.	2r	.
.	.	2F	.
=145	=145-	=145	=145
1E-X	0G	2B-	2g
.	.	2B-	2g
1E-Xi	.	1c	2g
.	.	.	2g
=146	=146	=146	=146
!	!LO:N:vis=2.	!	!
0D	[y0A	1d	0f
.	.	2d	.
.	.	2d	.
=147	=147-	=147	=147
1D	1A]yy	2f	0r
.	.	2f	.
1GG	1G	1d	.
=148	=148-	=148	=148
1D	1F	0r	2a
.	.	.	2a
1C	1E	.	2cc
.	.	.	2cc
=149	=149-	=149	=149
0D	0F	2r	1a
.	.	2A	.
.	.	2A	1r
.	.	2A	.
=150	=150	=150	=150
2.AA	0A	2c	1r
.	.	2c	.
4BB-	.	.	.
2C	.	1A	2r
2D	.	.	2f
=151	=151-	=151	=151
1BB-	0B-	1r	2f
.	.	.	2f
1GG	.	2r	2g
.	.	2B-	2d
=152	=152-	=152	=152
!	!LO:N:vis=1	!	!
1r	[y0G	2B-	2d
.	.	2B-	2d
2r	.	1c	2e
[2C	.	.	[2g
=153	=153-	=153	=153
2C]	0G]yy	1d	4g]
.	.	.	4f
2BB-	.	.	1f
2C	.	1c	.
2C	.	.	2e
=154	=154	=154	=154
*	*M2/1	*	*
*	*met(C.)	*	*
*	*rscale:1/4	*	*
!	!LO:N:vis=1	!	!
0D	[y0F	1A	0f
.	.	2r	.
.	.	[2F	.
=155	=155-	=155	=155
0r	0F]yy	4F]	1.a
.	.	4G	.
.	.	4A	.
.	.	4B-	.
.	.	2c	.
.	.	2d	[2f
=156	=156-	=156	=156
0r	0r	2A	2f]
.	.	1d	4e
.	.	.	4d
.	.	.	1e
.	.	2c#Xi	.
=157	=157-	=157	=157
!	!LO:N:vis=1	!	!
1r	[y0f	2d	0d
.	.	2d	.
1D	.	2f	.
.	.	2f	.
=158	=158-	=158	=158
2F	0f]yy	1c	2r
2F	.	.	2a
2F	.	2r	2cc
2F	.	2A	2cc
=159	=159-	=159	=159
0C	0e	2c	2cc
.	.	2c	2cc
.	.	2c	1g
.	.	2c	.
=160	=160	=160	=160
!	!LO:N:vis=1.	!	!
1C	[y0c	1G	2r
.	.	.	1e
2C	.	2G	.
[2C	.	2G	2e
=161	=161-	=161	=161
2C]	0c_yy	2G	2e
2C	.	2G	2e
2C	.	2G	2e
2C	.	2G	2e
=162	=162-	=162	=162
1F	0c]yy	0A	1f
1A	.	.	1f
=163	=163-	=163	=163
!	!LO:N:vis=1.	!	!
1G	[y0d	0r	1b-
2F	.	.	2a
[2G	.	.	[2b-
=164	=164-	=164	=164
2G]	0d_yy	0r	2b-]
4F	.	.	4a
4E	.	.	4g
1D	.	.	[1f
=165	=165-	=165	=165
2r	0d]yy	0r	1f]
2D	.	.	.
2D	.	.	2r
2D	.	.	2a
=166	=166	=166	=166
!	!LO:N:vis=0.	!	!
1AA	[y0c	2r	2a
.	.	2A	2a
2r	.	2A	1e
2AA	.	2A	.
=167	=167-	=167	=167
2C	0c_yy	1E	2r
2C	.	.	2e
1C	.	2r	2e
.	.	2E	2e
=168	=168-	=168	=168
2C	0c_yy	2E	1g
2C	.	2E	.
2.C	.	1G	2e
.	.	.	2g
4C	.	.	.
=169	=169-	=169	=169
2C	0c_yy	2E	2.g
2C	.	2G	.
.	.	.	4g
2C	.	2G	2e
2C	.	4r	2e
.	.	4G	.
=170	=170-	=170	=170
2.C	0c_yy	1E	2g
.	.	.	2g
4C	.	.	.
2C	.	2r	2a
2C	.	2E	2g
=171	=171-	=171	=171
2C	0c]yy	2G	1.e
2C	.	2G	.
1C	.	2A	.
.	.	2G	[2g
=172	=172	=172	=172
!	!LO:N:vis=1.	!	!
1r	[y0c	2E	2g]
.	.	2F	1f
1C	.	2G	.
.	.	2G	2e
=173	=173-	=173	=173
1.F	0c_yy	1F	0f
.	.	1r	.
[2A	.	.	.
=174	=174-	=174	=174
2A]	0c]yy	1F	0r
4G	.	.	.
4F	.	.	.
1E	.	1G	.
=175	=175-	=175	=175
!	!LO:N:vis=1	!	!
1.D	[y0d	1A	1.f
.	.	2D	.
[2G	.	[2B-	2g
=176	=176-	=176	=176
2G]	0d]yy	4B-]	1a
.	.	4A	.
2F	.	1A	.
1B-	.	.	1d
.	.	2G	.
=177	=177-	=177	=177
1.A	0c	1A	1r
.	.	1r	[1a
2G	.	.	.
=178	=178	=178	=178
*	*M2/1*	*	*
*	*met(C)	*	*
2F	0A	0r	2a]
2E	.	.	2g
2D	.	.	2f
2C	.	.	2e
=179	=179-	=179	=179
1G	1B-	1d	2d
.	.	.	1g
2D	1A	2d	.
2F	.	[2c	[2f
=180	=180-	=180	=180
1C	1G	1c]	2f]
.	.	.	2e
1D	1F	[1B-	1f
=181	=181-	=181	=181
0C	0E	2B-]	1r
.	.	4A	.
.	.	4G	.
.	.	1A	1cc
=182	=182	=182	=182
*	*M2/1	*	*
*	*met(C.)	*	*
*	*rscale:1/4	*	*
!	!LO:N:vis=1	!	!
1BB-	[y0F	0B-	2dd
.	.	.	2dd
2.BB-	.	.	2dd
.	.	.	2dd
4D	.	.	.
=183	=183-	=183	=183
2D	0F]yy	2r	1a
2D	.	2A	.
2D	.	2A	2r
2D	.	2A	2a
=184	=184-	=184	=184
2AA	0E	2A	2cc
2AA	.	2A	2cc
2C	.	2E	1g
2C	.	2E	.
=185	=185-	=185	=185
!	!LO:N:vis=1.	!	!
1GG	[y0D	2G	0b-
.	.	2G	.
1BB-	.	2D	.
.	.	2d	.
=186	=186-	=186	=186
2BB-	0D_yy	2d	1b-
2BB-	.	2d	.
4BB-	.	[1f	1b-
4C	.	.	.
4D	.	.	.
4E	.	.	.
=187	=187-	=187	=187
0F	0D]yy	1f]	1.a
.	.	1r	.
.	.	.	4g
.	.	.	4f
=188	=188	=188	=188
*	*M2/1	*	*
*	*met(C)	*	*
*	*rscale:1/4	*	*
!	!LO:N:vis=1	!	!
1G	[y0C	2r	1e
.	.	1c	.
2G	.	.	2r
[2G	.	2c	2e
=189	=189-	=189	=189
2G]	0C]yy	2c	2e
2G	.	2c	2e
1G	.	1c	2e
.	.	.	2e
=190	=190-	=190	=190
!	!LO:N:vis=2.	!	!
1A	[y0F	2c	1f
.	.	2c	.
2D	.	2.A	1a
[2A	.	.	.
.	.	4B-	.
=191	=191-	=191	=191
2A]	1F]yy	2c	1a
4G	.	1d	.
4F	.	.	.
1E	1G	.	1g
.	.	2c#Xi	.
=192	=192	=192	=192
!	!LO:N:vis=2.	!	!
1D	[y0A	1d	0f
2D	.	2r	.
[2F	.	[2D	.
=193	=193-	=193	=193
4F]	1A]yy	2D]	1r
4E	.	.	.
2C	.	2E	.
1D	1B-	1F	1d
=194	=194-	=194	=194
1.C	0c	1.G	1.e
4BB-	.	2A	2f
4AA	.	.	.
=195	=195-	=195	=195
2GG	[0d	1B-	1g
2G	.	.	.
2F	.	2A	2a
[2G	.	2G	[2b-
=196	=196	=196	=196
2G]	0d]	1B-	2b-]
4F	.	.	4a
4E	.	.	4g
2D	.	[1F	2b-
[2F	.	.	[2a
=197	=197-	=197	=197
!	!LO:N:vis=2.	!	!
2F]	[y0c	1F]	2a]
4E	.	.	4g
4D	.	.	4f
1C	.	1G	1e
=198	=198-	=198	=198
0F	1c]yy	1A	2r
.	.	.	2.a
.	1A	1D	.
.	.	.	4g
.	.	.	4f
.	.	.	4e
=199	=199-	=199	=199
0G	0B-	1r	1d
.	.	[1d	2r
.	.	.	[2g
=200	=200	=200	=200
0C	0c	2d]	4g]
.	.	.	4f
.	.	2c	4e
.	.	.	4d
.	.	[1c	2c
.	.	.	2g
=201	=201-	=201	=201
0D	0F	2c]	2f
.	.	4B-	1a
.	.	4A	.
.	.	1B-	.
.	.	.	4g
.	.	.	4f
=202	=202-	=202	=202
!	!LO:N:vis=1	!	!
1C	[y0G	1c	1e
1BB-	.	1d	2d
.	.	.	[2g
=203	=203-	=203	=203
0C	0G]yy	0c	2g]
.	.	.	1f
.	.	.	2e
=204	=204	=204	=204
[0FFl	[0Fl	1.A	[0fl
.	.	4G	.
.	.	4F	.
=205	=205-	=205	=205
0FF]	0F]	0cl	0f]
*	*rscale:1	*	*
==	==	==	==
*-	*-	*-	*-
!!!RDF**kern: l=long note in original notation
!!!system-decoration: s1,s2,s3,s4
!!!RDF**kern: i = editorial accidental
!!!RDF**kern: V = start of tuplet marker
!!!RDF**kern: Z = end of tuplet marker
!!!ENC:	Chris Gage 04-02-2014; JR 24 Oct 2020
!!!END:	2020/10/24/
!!!EED:	Jesse Rodin
!!!EEV:	2021/05/19/
!!attribution-level@Jos: 4b (almost certainly by another composer [double question mark])
!!!ONB:	Translated from MusicXML and edited on 2021/05/19/ by Craig Sapp
!!muse2ps: T^@{OPR}^u^@{ONM}{. }@{OTL}^C^@{COA}?\n@{SCT}^i2I150v85,85,85,150z18c130
